X:7
T:Schottisch G&A (tinwhistle in D) var. solo
T:st08993 (Hanny Christen)
%%MIDI program 72   % 111 /74 / 79=whistle
R:shottishe
M:2/4
L:1/8
K:G transpose=12
B/2d/2 |: gg f/2e/2f/2e/2 | dB e>d | "_c"cA d>c | BG Bd | gg f/2e/2f/2e/2 | dB e>d | 
^cA f>e |1 dd dB/2d/2 :|2 dd dz [K:D]|: cB c/2c/2c | gf!>!A2 | fe G/2G/2G | ed F/2F/2F | BA c/2c/2c | 
gf!>!B2 | A/2F/2A/2d/2 fe | dd dz :| [K:Amaj] e>e c>c | ee!>!d2 | e>e d>d | ff!>!e2 | aA/2A/2 Aa | 
fA/2A/2 Af | e/2e/2e "_#"g/2g/2g | e/2e/2e a/2a/2a | aA/2A/2 Aa | fA/2A/2 Af | e/2e/2e d"_#"G | Ac Az |]
% Aug 8, 2016

